X:520
T: Tommy Hunt's
S: B.Breathnach: "Ceol Rince na hEireann" II/161 (gan ainm)
Z: B.Black
L: 1/8
M: 4/4
R: reel
K: G
G2 BG DGBG|AAAB cd e2|AAAF G2 AG|FADA FA A2|
G2 BG DGBG|AAAB cdef|gfed cdeg|fdAF G2 z2 :|
g2 bg dgbg|g2 ag fd d2|f2 af dfaf|gbag fd d2|
g2 bg dgbg|g2 ag fddf|gfed cdeg|fdAF G3 z :|
